content/blog/rust-conferences-2025/original/oxidize.svg

<svg id="logo" width="200" length="auto" viewBox="0 0 235 54" fill="none"
    xmlns="http://www.w3.org/2000/svg">
    <path d="M33.6713 53.9246C32.9916 53.9239 32.3312 53.6973 31.7928 53.2803C31.2543 52.8632 30.8679 52.2789 30.6937 51.6183C30.5905 51.2244 30.5656 50.814 30.6202 50.4105C30.6749 50.0069 30.8081 49.6182 31.0122 49.2664C31.2164 48.9147 31.4875 48.6068 31.81 48.3605C32.1325 48.1141 32.5001 47.9341 32.8918 47.8307C36.5008 46.8719 39.795 44.9744 42.4433 42.3289C43.0228 41.7492 43.8076 41.4247 44.6251 41.4268C45.4426 41.4289 46.2257 41.7575 46.8022 42.3402C47.088 42.6285 47.3145 42.9707 47.4688 43.3471C47.623 43.7235 47.7019 44.1268 47.7011 44.5339C47.7002 44.941 47.6195 45.3439 47.4637 45.7197C47.3079 46.0954 47.0799 46.4365 46.7929 46.7236C43.3757 50.1375 39.1247 52.5862 34.4676 53.8231C34.2078 53.8923 33.94 53.9264 33.6713 53.9246ZM21.0674 53.8908C20.7934 53.8913 20.5205 53.8546 20.2562 53.7818C15.6119 52.5089 11.3799 50.0353 7.98136 46.6071C7.69493 46.3194 7.46772 45.9777 7.31268 45.6017C7.15765 45.2256 7.07785 44.8225 7.07785 44.4154C7.07785 44.0083 7.15765 43.6052 7.31268 43.2291C7.46772 42.853 7.69493 42.5114 7.98136 42.2237C8.5594 41.6424 9.34337 41.3159 10.1608 41.3159C10.9783 41.3159 11.7623 41.6424 12.3403 42.2237C14.9795 44.8857 18.2662 46.8059 21.8731 47.7931C22.2638 47.8999 22.6297 48.0829 22.95 48.3319C23.2703 48.5808 23.5387 48.8908 23.7399 49.2441C23.9411 49.5974 24.0711 49.9871 24.1225 50.3909C24.1739 50.7947 24.1457 51.2047 24.0394 51.5976C23.8634 52.2552 23.4769 52.8363 22.9398 53.2511C22.4027 53.6658 21.7447 53.8913 21.0674 53.8927V53.8908ZM50.9555 36.6655C50.6809 36.6652 50.4075 36.6286 50.1424 36.5565C49.7519 36.4494 49.3862 36.266 49.0661 36.0167C48.746 35.7675 48.478 35.4572 48.2771 35.1038C48.0763 34.7503 47.9467 34.3605 47.8956 33.9567C47.8446 33.5529 47.8732 33.1429 47.9798 32.7502C48.4743 30.929 48.7257 29.0498 48.7275 27.1619C48.7262 25.311 48.4868 23.4681 48.0153 21.6789V21.6545C47.8033 20.8606 47.9134 20.0146 48.3214 19.3023C48.7294 18.59 49.4018 18.0697 50.191 17.8557C50.9805 17.6425 51.8218 17.7532 52.5301 18.1635C53.2384 18.5737 53.7558 19.25 53.9686 20.0436L53.9836 20.1C54.5888 22.4047 54.896 24.7782 54.8976 27.1619C54.897 29.6001 54.5739 32.0273 53.9369 34.3798C53.759 35.0376 53.3705 35.6181 52.8316 36.0316C52.2927 36.4451 51.6334 36.6686 50.9555 36.6674V36.6655ZM3.89161 36.5189C3.2121 36.5183 2.55184 36.2919 2.01363 35.8747C1.47542 35.4576 1.08949 34.8732 0.9159 34.2125V34.1937C0.309372 31.888 0.00152206 29.5131 0 27.1281C0.00025227 24.6969 0.322079 22.2766 0.957016 19.9308C1.06292 19.538 1.24476 19.17 1.49214 18.8479C1.73953 18.5258 2.04761 18.2559 2.39878 18.0536C2.74995 17.8513 3.13731 17.7205 3.53874 17.6688C3.94018 17.6171 4.34782 17.6455 4.73835 17.7523C5.12903 17.859 5.495 18.0421 5.81531 18.291C6.13563 18.54 6.40405 18.8499 6.60522 19.2032C6.80639 19.5565 6.93638 19.9462 6.98777 20.35C7.03916 20.7538 7.01093 21.1639 6.90472 21.5567C6.41205 23.3725 6.16064 25.2459 6.15705 27.1281C6.15831 28.979 6.39769 30.8219 6.86921 32.6111V32.6223C7.07788 33.4177 6.96419 34.2638 6.55313 34.975C6.14206 35.6861 5.46721 36.2042 4.67668 36.4155C4.42047 36.4838 4.15667 36.5192 3.89161 36.5208V36.5189ZM44.705 12.9573C44.2993 12.9577 43.8975 12.8773 43.5228 12.7208C43.1481 12.5644 42.8079 12.3349 42.5218 12.0456C39.881 9.38767 36.5946 7.47084 32.989 6.48556C32.2001 6.27043 31.5284 5.74895 31.1218 5.03584C30.7152 4.32272 30.6069 3.47638 30.8208 2.68299C30.9267 2.28995 31.1086 1.92174 31.3561 1.59941C31.6036 1.27709 31.9118 1.00696 32.2631 0.804466C32.6145 0.601976 33.002 0.471091 33.4037 0.419291C33.8054 0.367491 34.2132 0.395794 34.604 0.502576C39.2497 1.77113 43.4837 4.24159 46.8845 7.66787C47.4625 8.24915 47.7872 9.03752 47.7872 9.85956C47.7872 10.6816 47.4625 11.47 46.8845 12.0513C46.5986 12.3395 46.2589 12.5681 45.8848 12.7239C45.5108 12.8797 45.1098 12.9596 44.705 12.9591V12.9573ZM10.2562 12.8783C9.85071 12.8788 9.44918 12.7984 9.07478 12.642C8.70038 12.4855 8.36051 12.256 8.07482 11.9667C7.78839 11.679 7.56118 11.3373 7.40614 10.9613C7.25111 10.5852 7.17131 10.1821 7.17131 9.77498C7.17131 9.36787 7.25111 8.96476 7.40614 8.58869C7.56118 8.21263 7.78839 7.87098 8.07482 7.58328C11.4898 4.16736 15.7387 1.71558 20.3945 0.474382C20.7858 0.369924 21.1937 0.343996 21.595 0.398084C21.9962 0.452171 22.3829 0.585213 22.733 0.789609C23.0831 0.994005 23.3897 1.26575 23.6354 1.58933C23.881 1.91291 24.0609 2.28198 24.1647 2.67547C24.3739 3.47009 24.261 4.31576 23.8505 5.02665C23.4401 5.73755 22.7658 6.25552 21.9759 6.46676C18.3674 7.42723 15.0743 9.32679 12.4281 11.9742C11.8522 12.5538 11.071 12.8797 10.2562 12.8802V12.8783Z" fill="white" style="--darkreader-inline-fill: #181a1b;" data-darkreader-inline-fill=""></path>
    <path d="M20.6319 40.9267C20.0469 40.927 19.4741 40.7588 18.9814 40.4418L18.9608 40.4305C16.7426 39.0042 14.9182 37.0379 13.6567 34.7139C12.3951 32.3899 11.7372 29.7833 11.7439 27.1356C11.744 24.117 12.607 21.162 14.23 18.6226C15.44 16.722 17.0442 15.1068 18.9328 13.8877C19.6203 13.4431 20.4553 13.2909 21.2543 13.4646C22.0533 13.6384 22.751 14.1238 23.1945 14.8144C23.637 15.5059 23.7883 16.3458 23.6152 17.1495C23.442 17.9531 22.9586 18.6547 22.2711 19.1C21.126 19.8392 20.153 20.8182 19.4188 21.9703C18.4333 23.5108 17.909 25.3038 17.9085 27.1356C17.9034 28.7454 18.3029 30.3304 19.0698 31.7434C19.8368 33.1564 20.9463 34.3517 22.2954 35.2182C22.9808 35.6609 23.4639 36.3585 23.6391 37.1585C23.8142 37.9585 23.6672 38.7957 23.23 39.4869C22.9525 39.9274 22.5688 40.2904 22.1146 40.5421C21.6605 40.7938 21.1505 40.9261 20.6319 40.9267ZM34.2768 40.9136C33.7601 40.9146 33.2514 40.7848 32.7977 40.5361C32.344 40.2874 31.9598 39.9279 31.6806 39.4907C31.2397 38.798 31.0905 37.9575 31.2657 37.1542C31.441 36.3508 31.9264 35.6504 32.6151 35.2069C33.7629 34.4643 34.7373 33.4806 35.4712 32.3235C36.4573 30.7831 36.9822 28.9901 36.9834 27.1582C36.9881 25.5484 36.5885 23.9636 35.8216 22.5506C35.0547 21.1376 33.9453 19.9423 32.5965 19.0756C31.9094 18.6325 31.4251 17.9335 31.2499 17.1318C31.0747 16.3301 31.2229 15.4913 31.6619 14.7994C32.1007 14.106 32.7954 13.6164 33.5931 13.438C34.3909 13.2597 35.2265 13.4072 35.9161 13.8482L35.9367 13.8614C38.1563 15.2871 39.9821 17.2533 41.2446 19.5778C42.5072 21.9022 43.1657 24.5096 43.1591 27.1582C43.1594 30.1771 42.2957 33.1324 40.6713 35.6712C39.4612 37.5779 37.8541 39.1978 35.961 40.4192C35.4601 40.7453 34.8754 40.9172 34.2787 40.9136H34.2768Z" fill="white" style="--darkreader-inline-fill: #e8e6e3;" data-darkreader-inline-fill=""></path>
    <path d="M27.4169 31.0208C26.3911 31.0213 25.407 30.6121 24.6811 29.8832C23.9552 29.1543 23.5469 28.1653 23.5459 27.1337C23.5474 26.1037 23.9549 25.1163 24.6792 24.388C25.4034 23.6597 26.3853 23.2499 27.4095 23.2484C28.4337 23.2499 29.4156 23.6597 30.1398 24.388C30.864 25.1163 31.2716 26.1037 31.2731 27.1337C31.2721 28.1627 30.8658 29.1494 30.1431 29.8779C29.4204 30.6064 28.4402 31.0174 27.4169 31.0208Z" fill="white" style="--darkreader-inline-fill: #e8e6e3;" data-darkreader-inline-fill=""></path>
    <path d="M78.7015 12.6377C80.5976 12.6239 82.4766 13 84.223 13.743C85.9046 14.4576 87.4334 15.4915 88.7258 16.788C90.0158 18.0872 91.044 19.6247 91.7539 21.3161C92.4927 23.0723 92.8667 24.9619 92.853 26.8687C92.8669 28.7755 92.4929 30.6651 91.7539 32.4212C91.044 34.1126 90.0158 35.6502 88.7258 36.9493C87.4338 38.2464 85.9049 39.2803 84.223 39.9944C82.4766 40.7373 80.5976 41.1134 78.7015 41.0996C76.8053 41.1136 74.9263 40.7375 73.1799 39.9944C71.4976 39.2812 69.9685 38.2472 68.6771 36.9493C67.3865 35.6507 66.3582 34.113 65.649 32.4212C64.91 30.6651 64.536 28.7755 64.5499 26.8687C64.5362 24.9619 64.9102 23.0723 65.649 21.3161C66.3582 19.6243 67.3865 18.0866 68.6771 16.788C69.969 15.4908 71.4979 14.4568 73.1799 13.743C74.9263 12.9998 76.8053 12.6237 78.7015 12.6377ZM78.7276 35.5471C79.8749 35.553 81.0114 35.3241 82.0678 34.8742C83.0967 34.4398 84.0313 33.8077 84.8193 33.0133C85.6075 32.2189 86.2336 31.277 86.6623 30.2408C87.11 29.1752 87.3377 28.0292 87.3314 26.8724C87.3375 25.7157 87.1098 24.5697 86.6623 23.5041C86.2336 22.4668 85.6075 21.5237 84.8193 20.7278C84.0309 19.9339 83.0964 19.3018 82.0678 18.8669C81.0111 18.4179 79.8748 18.189 78.7276 18.194C77.5804 18.1888 76.4441 18.4177 75.3874 18.8669C74.3589 19.3018 73.4244 19.9339 72.636 20.7278C71.8459 21.5277 71.2119 22.4693 70.7668 23.5041C70.3035 24.5656 70.0672 25.7132 70.0734 26.8724C70.0672 28.0317 70.3035 29.1793 70.7668 30.2408C71.2113 31.2759 71.8454 32.2176 72.636 33.0171C73.424 33.8115 74.3586 34.4436 75.3874 34.8779C76.4441 35.3267 77.5806 35.5544 78.7276 35.5471Z" fill="white" style="--darkreader-inline-fill: #e8e6e3;" data-darkreader-inline-fill=""></path>
    <path d="M110.659 26.3874C110.514 26.6304 110.437 26.9085 110.437 27.1919C110.437 27.4753 110.514 27.7533 110.659 27.9964L118.509 39.7781C118.993 40.5056 118.679 41.0939 117.808 41.0939H113.425C113.234 41.083 113.048 41.0306 112.878 40.9404C112.709 40.8502 112.562 40.7243 112.446 40.5714L107.332 32.9493C107.036 32.5076 106.552 32.5076 106.259 32.9493L101.201 40.5789C101.085 40.7334 100.937 40.8608 100.767 40.952C100.597 41.0432 100.41 41.0961 100.217 41.1071H95.838C94.967 41.1071 94.6529 40.5131 95.137 39.7913L102.988 28.0095C103.133 27.7665 103.209 27.4884 103.209 27.205C103.209 26.9216 103.133 26.6436 102.988 26.4005L94.7632 14.0248C94.2791 13.2993 94.595 12.709 95.4642 12.709H99.8455C100.038 12.7197 100.225 12.7725 100.395 12.8638C100.565 12.955 100.713 13.0825 100.829 13.2372L106.268 21.4439C106.561 21.8875 107.046 21.8875 107.341 21.4439L112.831 13.2316C112.946 13.0779 113.094 12.9514 113.263 12.8608C113.432 12.7702 113.619 12.7178 113.81 12.7072H118.195C119.064 12.7072 119.38 13.3011 118.896 14.0229L110.659 26.3874Z" fill="white" style="--darkreader-inline-fill: #e8e6e3;" data-darkreader-inline-fill=""></path>
    <path d="M129.584 12.6377C129.897 12.6382 130.197 12.7635 130.419 12.9862C130.64 13.2089 130.765 13.5107 130.765 13.8256V39.9117C130.765 40.2266 130.64 40.5285 130.419 40.7511C130.197 40.9738 129.897 41.0991 129.584 41.0996H126.425C126.112 41.0986 125.812 40.9732 125.591 40.7506C125.37 40.528 125.245 40.2264 125.244 39.9117V13.8256C125.245 13.5109 125.37 13.2093 125.591 12.9867C125.812 12.7642 126.112 12.6387 126.425 12.6377H129.584Z" fill="white" style="--darkreader-inline-fill: #e8e6e3;" data-darkreader-inline-fill=""></path>
    <path d="M164.809 26.8424C164.809 26.8574 164.768 27.3029 164.717 27.8329C164.717 27.8329 164.442 30.6957 163.71 32.4212C163 34.1126 161.972 35.6502 160.682 36.9493C159.39 38.2472 157.861 39.2812 156.179 39.9944C154.43 40.7383 152.548 41.1145 150.65 41.0996C148.754 41.1136 146.874 40.7375 145.128 39.9944C143.446 39.2803 141.917 38.2463 140.625 36.9493C139.335 35.6502 138.307 34.1126 137.597 32.4212C136.858 30.6651 136.484 28.7755 136.498 26.8687C136.484 24.9618 136.858 23.0723 137.597 21.3161C138.307 19.6247 139.335 18.0872 140.625 16.788C141.918 15.4915 143.447 14.4576 145.128 13.7429C146.874 12.9998 148.754 12.6237 150.65 12.6377C152.229 12.6272 153.798 12.8917 155.287 13.4196C156.384 13.8144 157.635 14.585 158.196 14.9008C158.756 15.2166 159.291 14.8783 159.28 14.3802V1.25631C159.281 0.941546 159.405 0.639965 159.627 0.417396C159.848 0.194826 160.148 0.0693507 160.461 0.0683594H163.62C163.933 0.0688565 164.233 0.194174 164.455 0.416851C164.676 0.639527 164.801 0.941394 164.801 1.25631V26.8424H164.809ZM150.685 35.5471C151.832 35.553 152.968 35.3241 154.024 34.8742C155.053 34.4395 155.988 33.8074 156.777 33.0133C157.564 32.2179 158.19 31.2763 158.62 30.2408C158.914 29.4676 159.107 28.6596 159.196 27.8367C159.246 27.3066 159.287 26.8612 159.287 26.8461C159.287 26.8311 159.246 26.3837 159.194 25.8536C159.107 25.0386 158.914 24.2386 158.62 23.474C158.185 22.4485 157.559 21.5158 156.777 20.7259C155.987 19.9325 155.052 19.3005 154.024 18.865C152.967 18.416 151.832 18.1871 150.685 18.1921C149.537 18.1867 148.4 18.4156 147.343 18.865C146.315 19.2999 145.38 19.932 144.592 20.7259C143.802 21.5262 143.168 22.4677 142.723 23.5022C142.26 24.564 142.024 25.7114 142.029 26.8706C142.023 28.0302 142.258 29.1783 142.721 30.2408C143.166 31.2755 143.8 32.2172 144.59 33.0171C145.378 33.8115 146.312 34.4436 147.341 34.8779C148.399 35.3271 149.537 35.5548 150.685 35.5471Z" fill="white" style="--darkreader-inline-fill: #181a1b;" data-darkreader-inline-fill=""></path>
    <path d="M174.949 12.6377C175.262 12.6387 175.562 12.7642 175.783 12.9867C176.004 13.2093 176.129 13.5109 176.13 13.8256V39.9117C176.129 40.2264 176.004 40.528 175.783 40.7506C175.562 40.9732 175.262 41.0986 174.949 41.0996H171.79C171.477 41.0991 171.177 40.9738 170.955 40.7511C170.734 40.5285 170.609 40.2266 170.609 39.9117V13.8256C170.609 13.5107 170.734 13.2089 170.955 12.9862C171.177 12.7635 171.477 12.6382 171.79 12.6377H174.949Z" fill="white" style="--darkreader-inline-fill: #e8e6e3;" data-darkreader-inline-fill=""></path>
    <path d="M234.49 23.2034C233.999 21.3474 233.122 19.6175 231.916 18.1283C230.632 16.444 228.985 15.074 227.099 14.1208C225.157 13.1288 223.006 12.6202 220.828 12.6378C218.932 12.6238 217.053 12.9999 215.306 13.743C213.625 14.4577 212.096 15.4915 210.804 16.7881C209.514 18.0872 208.485 19.6248 207.775 21.3162C207.037 23.0724 206.663 24.9619 206.676 26.8687C206.662 28.7756 207.037 30.6651 207.775 32.4213C208.486 34.1124 209.514 35.6499 210.804 36.9494C212.096 38.2464 213.625 39.2804 215.306 39.9945C217.053 40.7376 218.932 41.1137 220.828 41.0997C223.006 41.1172 225.157 40.6086 227.099 39.6166C229.03 38.6298 230.983 36.6223 230.983 36.6223C231.558 36.0226 232.098 35.39 232.6 34.7276L232.622 34.6957L232.916 34.2276C233.219 33.7408 233.235 33.7032 233.235 33.7032C233.495 33.1262 233.088 32.6901 232.348 32.6901H229.572C228.824 32.6901 228.092 32.6901 227.811 32.6901C227.224 32.6901 226.755 33.0942 226.204 33.5904C225.637 34.073 225.008 34.4769 224.334 34.7915C223.233 35.2966 222.035 35.5532 220.824 35.5434C219.819 35.5496 218.821 35.3765 217.876 35.0321C216.963 34.7003 216.112 34.2175 215.357 33.6036C214.604 32.9912 213.96 32.2538 213.454 31.4232C213.168 30.9751 212.933 30.4959 212.755 29.9946C212.534 29.2841 212.961 28.7014 213.701 28.7014H233.469C233.689 28.7002 233.906 28.6545 234.108 28.567C234.309 28.4795 234.491 28.3519 234.643 28.192C234.861 27.9462 234.98 27.6269 234.976 27.2973V26.8687C234.982 25.6303 234.818 24.3969 234.49 23.2034ZM227.548 23.1489H214.34C213.592 23.1489 213.327 22.6395 213.734 22.0211C213.734 22.0211 214.755 20.4609 216.131 19.5549C217.524 18.6419 219.157 18.168 220.82 18.1941H220.944H221.067C222.73 18.1678 224.363 18.6417 225.757 19.5549C227.134 20.4609 228.155 22.0211 228.155 22.0211C228.561 22.6395 228.288 23.1489 227.548 23.1489Z" fill="white" style="--darkreader-inline-fill: #e8e6e3;" data-darkreader-inline-fill=""></path>
    <path d="M204.332 35.7162H193.028C192.143 35.7162 191.798 35.0959 192.259 34.3366L196.818 26.8574L201.652 18.9214L202.661 17.2729L204.256 14.6827C204.958 13.5418 204.443 12.6151 203.108 12.6151H182.743C182.43 12.6166 182.131 12.7422 181.91 12.9647C181.688 13.1872 181.563 13.4885 181.562 13.8031V16.8105C181.563 17.1253 181.688 17.4269 181.909 17.6494C182.13 17.872 182.43 17.9975 182.743 17.9985H194.048C194.932 17.9985 195.278 18.6188 194.816 19.3782L190.257 26.8574L185.416 34.7877C185.14 35.2426 184.685 35.985 184.405 36.438L182.811 39.0282C182.11 40.1673 182.624 41.0958 183.958 41.0958H204.332C204.645 41.0949 204.945 40.9693 205.166 40.7467C205.387 40.5241 205.511 40.2225 205.512 39.9079V36.9004C205.51 36.5866 205.385 36.2863 205.164 36.0646C204.943 35.8429 204.644 35.7177 204.332 35.7162Z" fill="white" style="--darkreader-inline-fill: #e8e6e3;" data-darkreader-inline-fill=""></path>
</svg>

<svg xmlns="http://www.w3.org/2000/svg" width="200" fill="none" viewBox="0 0 235 54"><path fill="#fff" d="M33.671 53.925c-.68-.001-1.34-.228-1.878-.645a3.1 3.1 0 0 1-.78-4.014 3.1 3.1 0 0 1 1.879-1.435 21.23 21.23 0 0 0 9.551-5.502 3.074 3.074 0 0 1 5.026 1.018 3.12 3.12 0 0 1-.676 3.377 27.4 27.4 0 0 1-12.325 7.1q-.392.102-.797.1m-12.604-.034c-.274 0-.547-.036-.81-.11A27.54 27.54 0 0 1 7.98 46.608a3.1 3.1 0 0 1-.903-2.192 3.11 3.11 0 0 1 .903-2.191 3.073 3.073 0 0 1 4.36 0 21.37 21.37 0 0 0 9.532 5.57 3.08 3.08 0 0 1 1.867 1.45 3.1 3.1 0 0 1 .3 2.354 3.1 3.1 0 0 1-1.1 1.653 3.07 3.07 0 0 1-1.873.642zm29.889-17.225a3.075 3.075 0 0 1-2.678-1.562 3.11 3.11 0 0 1-.298-2.354c.494-1.821.746-3.7.748-5.588a21.6 21.6 0 0 0-.713-5.483v-.024a3.12 3.12 0 0 1 .306-2.353 3.069 3.069 0 0 1 4.209-1.139 3.1 3.1 0 0 1 1.439 1.88l.015.057a27.643 27.643 0 0 1-.047 14.28 3.1 3.1 0 0 1-1.105 1.652 3.07 3.07 0 0 1-1.876.635zm-47.064-.147a3.07 3.07 0 0 1-1.878-.644 3.1 3.1 0 0 1-1.098-1.663v-.018A27.9 27.9 0 0 1 0 27.128c0-2.431.322-4.851.957-7.197a3.1 3.1 0 0 1 1.442-1.877 3.07 3.07 0 0 1 4.206 1.15 3.1 3.1 0 0 1 .3 2.353 21.4 21.4 0 0 0-.748 5.571c.001 1.851.24 3.694.712 5.483v.011a3.12 3.12 0 0 1-.316 2.353 3.09 3.09 0 0 1-2.661 1.546zm40.813-23.562a3.06 3.06 0 0 1-2.183-.911 21.4 21.4 0 0 0-9.533-5.56 3.09 3.09 0 0 1-1.867-1.45 3.12 3.12 0 0 1 .234-3.437A3.1 3.1 0 0 1 33.404.42c.401-.052.81-.023 1.2.084a27.5 27.5 0 0 1 12.28 7.165 3.108 3.108 0 0 1-1 5.056 3.1 3.1 0 0 1-1.179.235zm-34.449-.079a3.06 3.06 0 0 1-2.181-.911 3.1 3.1 0 0 1-.904-2.192 3.11 3.11 0 0 1 .904-2.192A27.4 27.4 0 0 1 20.395.474a3.07 3.07 0 0 1 3.24 1.115 3.11 3.11 0 0 1 .215 3.438 3.09 3.09 0 0 1-1.874 1.44 21.2 21.2 0 0 0-9.548 5.507 3.06 3.06 0 0 1-2.172.906z" style="--darkreader-inline-fill:#181a1b"/><path fill="#fff" d="M20.632 40.927a3.05 3.05 0 0 1-1.65-.485l-.021-.011a15.7 15.7 0 0 1-5.304-5.717 15.8 15.8 0 0 1-1.913-7.578c0-3.019.863-5.974 2.486-8.513a15.6 15.6 0 0 1 4.703-4.735 3.07 3.07 0 0 1 4.262.926c.442.692.593 1.532.42 2.335a3.1 3.1 0 0 1-1.344 1.951 9.5 9.5 0 0 0-2.852 2.87 9.6 9.6 0 0 0-1.51 5.166 9.6 9.6 0 0 0 1.16 4.607 9.53 9.53 0 0 0 3.226 3.475 3.112 3.112 0 0 1-.18 5.324 3.07 3.07 0 0 1-1.483.385m13.645-.013a3.07 3.07 0 0 1-2.596-1.423 3.12 3.12 0 0 1-.415-2.337 3.1 3.1 0 0 1 1.35-1.947 9.5 9.5 0 0 0 2.855-2.883 9.6 9.6 0 0 0 1.512-5.166 9.6 9.6 0 0 0-1.161-4.607 9.54 9.54 0 0 0-3.226-3.475 3.114 3.114 0 0 1-.935-4.276 3.068 3.068 0 0 1 4.254-.951l.022.012a15.7 15.7 0 0 1 5.308 5.717 15.8 15.8 0 0 1 1.914 7.58c0 3.02-.863 5.974-2.488 8.513a15.6 15.6 0 0 1-4.71 4.748 3.05 3.05 0 0 1-1.682.495z" style="--darkreader-inline-fill:#e8e6e3"/><path fill="#fff" d="M27.417 31.02a3.86 3.86 0 0 1-2.736-1.137 3.9 3.9 0 0 1-1.135-2.75 3.9 3.9 0 0 1 1.133-2.745 3.86 3.86 0 0 1 2.73-1.14 3.86 3.86 0 0 1 2.73 1.14 3.9 3.9 0 0 1 1.134 2.746 3.9 3.9 0 0 1-1.13 2.744 3.86 3.86 0 0 1-2.726 1.143M78.702 12.638a13.85 13.85 0 0 1 5.521 1.105 14.2 14.2 0 0 1 4.503 3.045 14.3 14.3 0 0 1 3.028 4.528 14.1 14.1 0 0 1 1.099 5.553 14.1 14.1 0 0 1-1.1 5.552 14.3 14.3 0 0 1-3.027 4.528 14.2 14.2 0 0 1-4.503 3.045 13.85 13.85 0 0 1-5.522 1.106 13.8 13.8 0 0 1-5.521-1.106 14.1 14.1 0 0 1-4.503-3.045 14.2 14.2 0 0 1-3.028-4.528 14.1 14.1 0 0 1-1.1-5.552 14.1 14.1 0 0 1 1.1-5.553 14.166 14.166 0 0 1 7.53-7.573 13.8 13.8 0 0 1 5.522-1.105m.026 22.91a8.4 8.4 0 0 0 3.34-.674 8.609 8.609 0 0 0 4.594-4.633 8.6 8.6 0 0 0 .67-3.369 8.6 8.6 0 0 0-.67-3.368 8.596 8.596 0 0 0-4.594-4.637 8.45 8.45 0 0 0-3.34-.673 8.4 8.4 0 0 0-3.34.673 8.6 8.6 0 0 0-2.752 1.86 9 9 0 0 0-1.87 2.777 8.3 8.3 0 0 0-.693 3.368 8.3 8.3 0 0 0 .694 3.369 9 9 0 0 0 1.869 2.776 8.6 8.6 0 0 0 2.751 1.86 8.4 8.4 0 0 0 3.34.67M110.659 26.387a1.57 1.57 0 0 0 0 1.61l7.85 11.781c.484.728.17 1.316-.701 1.316h-4.383a1.33 1.33 0 0 1-.979-.523l-5.114-7.622c-.296-.441-.78-.441-1.073 0l-5.058 7.63a1.33 1.33 0 0 1-.984.528h-4.379c-.871 0-1.185-.594-.701-1.316l7.851-11.781a1.57 1.57 0 0 0 0-1.61l-8.225-12.375c-.484-.726-.168-1.316.701-1.316h4.382a1.31 1.31 0 0 1 .983.528l5.439 8.207c.293.444.778.444 1.073 0l5.49-8.212a1.32 1.32 0 0 1 .979-.525h4.385c.869 0 1.185.594.701 1.316zM129.584 12.638a1.18 1.18 0 0 1 1.181 1.188v26.086a1.182 1.182 0 0 1-1.181 1.188h-3.159a1.18 1.18 0 0 1-.834-.35 1.2 1.2 0 0 1-.347-.838V13.826c.001-.315.126-.617.347-.84a1.18 1.18 0 0 1 .834-.348z" style="--darkreader-inline-fill:#e8e6e3"/><path fill="#fff" d="M164.809 26.842c0 .015-.041.46-.092.99 0 0-.275 2.864-1.007 4.59a14.147 14.147 0 0 1-7.531 7.573 13.85 13.85 0 0 1-5.529 1.105 13.8 13.8 0 0 1-5.522-1.106 14.2 14.2 0 0 1-4.503-3.045 14.3 14.3 0 0 1-3.028-4.528 14.05 14.05 0 0 1-1.099-5.552 14.05 14.05 0 0 1 1.099-5.553 14.3 14.3 0 0 1 3.028-4.528 14.2 14.2 0 0 1 4.503-3.045 13.8 13.8 0 0 1 5.522-1.105c1.579-.01 3.148.254 4.637.782 1.097.394 2.348 1.165 2.909 1.48.56.317 1.095-.022 1.084-.52V1.256a1.19 1.19 0 0 1 1.181-1.188h3.159a1.18 1.18 0 0 1 1.181 1.188v25.586zm-14.124 8.705a8.4 8.4 0 0 0 3.339-.673 8.6 8.6 0 0 0 4.596-4.633 9.7 9.7 0 0 0 .576-2.404c.05-.53.091-.976.091-.99 0-.016-.041-.463-.093-.993a9.4 9.4 0 0 0-.574-2.38 8.644 8.644 0 0 0-4.596-4.609 8.4 8.4 0 0 0-3.339-.673 8.4 8.4 0 0 0-3.342.673 8.6 8.6 0 0 0-2.751 1.86 9 9 0 0 0-1.869 2.777 8.3 8.3 0 0 0-.694 3.369 8.3 8.3 0 0 0 .692 3.37 9 9 0 0 0 1.869 2.776 8.6 8.6 0 0 0 2.751 1.86 8.4 8.4 0 0 0 3.344.67" style="--darkreader-inline-fill:#181a1b"/><path fill="#fff" d="M174.949 12.638c.313 0 .613.126.834.349s.346.524.347.839v26.086a1.2 1.2 0 0 1-.347.839 1.18 1.18 0 0 1-.834.349h-3.159a1.18 1.18 0 0 1-1.181-1.188V13.826a1.182 1.182 0 0 1 1.181-1.188zM234.49 23.203a13.6 13.6 0 0 0-2.574-5.075 14 14 0 0 0-4.817-4.007 13.55 13.55 0 0 0-6.271-1.483 13.85 13.85 0 0 0-5.522 1.105 14.2 14.2 0 0 0-4.502 3.045 14.3 14.3 0 0 0-3.029 4.528 14.1 14.1 0 0 0-1.099 5.553 14.1 14.1 0 0 0 1.099 5.552 14.3 14.3 0 0 0 3.029 4.528 14.2 14.2 0 0 0 4.502 3.046 13.85 13.85 0 0 0 5.522 1.105 13.55 13.55 0 0 0 6.271-1.483c1.931-.987 3.884-2.995 3.884-2.995a22 22 0 0 0 1.617-1.894l.022-.032.294-.468c.303-.487.319-.525.319-.525.26-.577-.147-1.013-.887-1.013h-4.537c-.587 0-1.056.404-1.607.9a8.3 8.3 0 0 1-1.87 1.201 8.26 8.26 0 0 1-3.51.752 8.5 8.5 0 0 1-2.948-.51 8.7 8.7 0 0 1-2.519-1.43 8.5 8.5 0 0 1-1.903-2.18 7 7 0 0 1-.699-1.428c-.221-.71.206-1.294.946-1.294h19.768a1.63 1.63 0 0 0 1.174-.509c.218-.246.337-.565.333-.895v-.428a13.6 13.6 0 0 0-.486-3.666m-6.942-.054H214.34c-.748 0-1.013-.51-.606-1.128 0 0 1.021-1.56 2.397-2.466a8.3 8.3 0 0 1 4.689-1.36h.247a8.3 8.3 0 0 1 4.69 1.36c1.377.906 2.398 2.466 2.398 2.466.406.619.133 1.128-.607 1.128M204.332 35.716h-11.304c-.885 0-1.23-.62-.769-1.38l4.559-7.479 4.834-7.936 1.009-1.648 1.595-2.59c.702-1.141.187-2.068-1.148-2.068h-20.365a1.192 1.192 0 0 0-1.181 1.188v3.008c.001.314.126.616.347.838.221.223.521.348.834.35h11.305c.884 0 1.23.62.768 1.38l-4.559 7.478-4.841 7.93c-.276.456-.731 1.198-1.011 1.651l-1.594 2.59c-.701 1.14-.187 2.068 1.147 2.068h20.374c.313-.001.613-.127.834-.35s.345-.524.346-.838V36.9a1.2 1.2 0 0 0-.348-.835 1.18 1.18 0 0 0-.832-.349" style="--darkreader-inline-fill:#e8e6e3"/></svg>
